images/50253546.svg

<?xml version="1.0" encoding="UTF-8"?>
<svg xmlns="http://www.w3.org/2000/svg" xmlns:xlink="http://www.w3.org/1999/xlink" width="300pt" height="300pt" viewBox="0 0 300 300" version="1.1">
<defs>
<g>
<symbol overflow="visible" id="glyph0-0">
<path style="stroke:none;" d="M 0.546875 1.9375 L 0.546875 -7.75 L 6.046875 -7.75 L 6.046875 1.9375 Z M 1.171875 1.328125 L 5.4375 1.328125 L 5.4375 -7.140625 L 1.171875 -7.140625 Z M 1.171875 1.328125 "/>
</symbol>
<symbol overflow="visible" id="glyph0-1">
<path style="stroke:none;" d="M 4.328125 -7.28125 C 3.546875 -7.28125 2.921875 -6.984375 2.453125 -6.390625 C 1.992188 -5.804688 1.765625 -5.007812 1.765625 -4 C 1.765625 -2.988281 1.992188 -2.1875 2.453125 -1.59375 C 2.921875 -1.007812 3.546875 -0.71875 4.328125 -0.71875 C 5.117188 -0.71875 5.742188 -1.007812 6.203125 -1.59375 C 6.660156 -2.1875 6.890625 -2.988281 6.890625 -4 C 6.890625 -5.007812 6.660156 -5.804688 6.203125 -6.390625 C 5.742188 -6.984375 5.117188 -7.28125 4.328125 -7.28125 Z M 4.328125 -8.171875 C 5.453125 -8.171875 6.351562 -7.789062 7.03125 -7.03125 C 7.707031 -6.28125 8.046875 -5.269531 8.046875 -4 C 8.046875 -2.738281 7.707031 -1.726562 7.03125 -0.96875 C 6.351562 -0.21875 5.453125 0.15625 4.328125 0.15625 C 3.203125 0.15625 2.300781 -0.21875 1.625 -0.96875 C 0.957031 -1.71875 0.625 -2.726562 0.625 -4 C 0.625 -5.269531 0.957031 -6.28125 1.625 -7.03125 C 2.300781 -7.789062 3.203125 -8.171875 4.328125 -8.171875 Z M 4.328125 -8.171875 "/>
</symbol>
<symbol overflow="visible" id="glyph0-2">
<path style="stroke:none;" d="M 1.078125 -8.015625 L 2.546875 -8.015625 L 6.09375 -1.3125 L 6.09375 -8.015625 L 7.15625 -8.015625 L 7.15625 0 L 5.6875 0 L 2.125 -6.703125 L 2.125 0 L 1.078125 0 Z M 1.078125 -8.015625 "/>
</symbol>
</g>
</defs>
<g id="surface14825">
<rect x="0" y="0" width="300" height="300" style="fill:rgb(100%,100%,100%);fill-opacity:1;stroke:none;"/>
<path style="fill:none;stroke-width:1.2;stroke-linecap:butt;stroke-linejoin:miter;stroke:rgb(100%,0%,0%);stroke-opacity:1;stroke-miterlimit:10;" d="M 35.25 117.683594 L 44.234375 106.90625 "/>
<path style="fill:none;stroke-width:1.2;stroke-linecap:butt;stroke-linejoin:miter;stroke:rgb(0%,0%,0%);stroke-opacity:1;stroke-miterlimit:10;" d="M 44.234375 106.90625 L 53.222656 96.128906 "/>
<path style="fill:none;stroke-width:1.2;stroke-linecap:butt;stroke-linejoin:miter;stroke:rgb(0%,0%,0%);stroke-opacity:1;stroke-miterlimit:10;" d="M 44.929688 144.023438 L 40.089844 130.851562 "/>
<path style="fill:none;stroke-width:1.2;stroke-linecap:butt;stroke-linejoin:miter;stroke:rgb(100%,0%,0%);stroke-opacity:1;stroke-miterlimit:10;" d="M 40.089844 130.851562 L 35.25 117.683594 "/>
<path style=" stroke:none;fill-rule:nonzero;fill:rgb(100%,100%,100%);fill-opacity:1;" d="M 31.25 111.183594 L 40.25 111.183594 L 40.25 124.183594 L 31.25 124.183594 Z M 31.25 111.183594 "/>
<g style="fill:rgb(100%,0%,0%);fill-opacity:1;">
  <use xlink:href="#glyph0-1" x="31.25" y="121.084961"/>
</g>
<path style="fill:none;stroke-width:1.2;stroke-linecap:butt;stroke-linejoin:miter;stroke:rgb(0%,0%,0%);stroke-opacity:1;stroke-miterlimit:10;" d="M 53.222656 96.128906 L 80.871094 100.917969 "/>
<path style="fill:none;stroke-width:1.2;stroke-linecap:butt;stroke-linejoin:miter;stroke:rgb(0%,0%,0%);stroke-opacity:1;stroke-miterlimit:10;" d="M 80.871094 100.917969 L 85.710938 114.085938 "/>
<path style="fill:none;stroke-width:1.2;stroke-linecap:butt;stroke-linejoin:miter;stroke:rgb(0%,0%,100%);stroke-opacity:1;stroke-miterlimit:10;" d="M 85.710938 114.085938 L 90.550781 127.257812 "/>
<path style="fill:none;stroke-width:1.2;stroke-linecap:butt;stroke-linejoin:miter;stroke:rgb(0%,0%,100%);stroke-opacity:1;stroke-miterlimit:10;" d="M 90.550781 127.257812 L 81.566406 138.03125 "/>
<path style="fill:none;stroke-width:1.2;stroke-linecap:butt;stroke-linejoin:miter;stroke:rgb(0%,0%,0%);stroke-opacity:1;stroke-miterlimit:10;" d="M 81.566406 138.03125 L 72.582031 148.808594 "/>
<path style="fill:none;stroke-width:1.2;stroke-linecap:butt;stroke-linejoin:miter;stroke:rgb(0%,0%,100%);stroke-opacity:1;stroke-miterlimit:10;" d="M 90.550781 127.257812 L 104.378906 129.648438 "/>
<path style="fill:none;stroke-width:1.2;stroke-linecap:butt;stroke-linejoin:miter;stroke:rgb(0%,0%,0%);stroke-opacity:1;stroke-miterlimit:10;" d="M 104.378906 129.648438 L 118.203125 132.042969 "/>
<path style=" stroke:none;fill-rule:nonzero;fill:rgb(100%,100%,100%);fill-opacity:1;" d="M 86.550781 120.757812 L 94.550781 120.757812 L 94.550781 133.757812 L 86.550781 133.757812 Z M 86.550781 120.757812 "/>
<g style="fill:rgb(0%,0%,100%);fill-opacity:1;">
  <use xlink:href="#glyph0-2" x="86.550781" y="130.65918"/>
</g>
<path style="fill:none;stroke-width:1.2;stroke-linecap:butt;stroke-linejoin:miter;stroke:rgb(0%,0%,0%);stroke-opacity:1;stroke-miterlimit:10;" d="M 72.582031 148.808594 L 44.929688 144.023438 "/>
<path style="fill:none;stroke-width:1.2;stroke-linecap:butt;stroke-linejoin:miter;stroke:rgb(0%,0%,0%);stroke-opacity:1;stroke-miterlimit:10;" d="M 118.203125 132.042969 L 127.882812 158.382812 "/>
<path style="fill:none;stroke-width:1.2;stroke-linecap:butt;stroke-linejoin:miter;stroke:rgb(0%,0%,0%);stroke-opacity:1;stroke-miterlimit:10;" d="M 125.367188 132.398438 L 133.113281 153.472656 "/>
<path style="fill:none;stroke-width:1.2;stroke-linecap:butt;stroke-linejoin:miter;stroke:rgb(0%,0%,0%);stroke-opacity:1;stroke-miterlimit:10;" d="M 136.175781 110.488281 L 118.203125 132.042969 "/>
<path style="fill:none;stroke-width:1.2;stroke-linecap:butt;stroke-linejoin:miter;stroke:rgb(0%,0%,0%);stroke-opacity:1;stroke-miterlimit:10;" d="M 127.882812 158.382812 L 155.535156 163.171875 "/>
<path style="fill:none;stroke-width:1.2;stroke-linecap:butt;stroke-linejoin:miter;stroke:rgb(0%,0%,0%);stroke-opacity:1;stroke-miterlimit:10;" d="M 155.535156 163.171875 L 160.375 176.339844 "/>
<path style="fill:none;stroke-width:1.2;stroke-linecap:butt;stroke-linejoin:miter;stroke:rgb(0%,0%,100%);stroke-opacity:1;stroke-miterlimit:10;" d="M 160.375 176.339844 L 165.214844 189.511719 "/>
<path style="fill:none;stroke-width:1.2;stroke-linecap:butt;stroke-linejoin:miter;stroke:rgb(0%,0%,0%);stroke-opacity:1;stroke-miterlimit:10;" d="M 173.503906 141.617188 L 155.535156 163.171875 "/>
<path style="fill:none;stroke-width:1.2;stroke-linecap:butt;stroke-linejoin:miter;stroke:rgb(0%,0%,0%);stroke-opacity:1;stroke-miterlimit:10;" d="M 166.636719 139.542969 L 152.261719 156.785156 "/>
<path style="fill:none;stroke-width:1.2;stroke-linecap:butt;stroke-linejoin:miter;stroke:rgb(0%,0%,100%);stroke-opacity:1;stroke-miterlimit:10;" d="M 165.214844 189.511719 L 156.230469 200.285156 "/>
<path style="fill:none;stroke-width:1.2;stroke-linecap:butt;stroke-linejoin:miter;stroke:rgb(0%,0%,0%);stroke-opacity:1;stroke-miterlimit:10;" d="M 156.230469 200.285156 L 147.242188 211.0625 "/>
<path style="fill:none;stroke-width:1.2;stroke-linecap:butt;stroke-linejoin:miter;stroke:rgb(0%,0%,100%);stroke-opacity:1;stroke-miterlimit:10;" d="M 165.214844 189.511719 L 179.039062 191.902344 "/>
<path style="fill:none;stroke-width:1.2;stroke-linecap:butt;stroke-linejoin:miter;stroke:rgb(0%,0%,0%);stroke-opacity:1;stroke-miterlimit:10;" d="M 179.039062 191.902344 L 192.867188 194.296875 "/>
<path style=" stroke:none;fill-rule:nonzero;fill:rgb(100%,100%,100%);fill-opacity:1;" d="M 161.214844 183.011719 L 169.214844 183.011719 L 169.214844 196.011719 L 161.214844 196.011719 Z M 161.214844 183.011719 "/>
<g style="fill:rgb(0%,0%,100%);fill-opacity:1;">
  <use xlink:href="#glyph0-2" x="161.214844" y="192.913086"/>
</g>
<path style="fill:none;stroke-width:1.2;stroke-linecap:butt;stroke-linejoin:miter;stroke:rgb(0%,0%,0%);stroke-opacity:1;stroke-miterlimit:10;" d="M 147.242188 211.0625 L 119.59375 206.277344 "/>
<path style="fill:none;stroke-width:1.2;stroke-linecap:butt;stroke-linejoin:miter;stroke:rgb(0%,0%,0%);stroke-opacity:1;stroke-miterlimit:10;" d="M 147.242188 211.0625 L 156.921875 237.402344 "/>
<path style="fill:none;stroke-width:1.2;stroke-linecap:butt;stroke-linejoin:miter;stroke:rgb(0%,0%,0%);stroke-opacity:1;stroke-miterlimit:10;" d="M 189.765625 195.4375 L 194.605469 208.605469 "/>
<path style="fill:none;stroke-width:1.2;stroke-linecap:butt;stroke-linejoin:miter;stroke:rgb(100%,0%,0%);stroke-opacity:1;stroke-miterlimit:10;" d="M 194.605469 208.605469 L 199.445312 221.777344 "/>
<path style="fill:none;stroke-width:1.2;stroke-linecap:butt;stroke-linejoin:miter;stroke:rgb(0%,0%,0%);stroke-opacity:1;stroke-miterlimit:10;" d="M 195.964844 193.15625 L 200.804688 206.328125 "/>
<path style="fill:none;stroke-width:1.2;stroke-linecap:butt;stroke-linejoin:miter;stroke:rgb(100%,0%,0%);stroke-opacity:1;stroke-miterlimit:10;" d="M 200.804688 206.328125 L 205.644531 219.5 "/>
<path style="fill:none;stroke-width:1.2;stroke-linecap:butt;stroke-linejoin:miter;stroke:rgb(0%,0%,0%);stroke-opacity:1;stroke-miterlimit:10;" d="M 192.867188 194.296875 L 201.851562 183.519531 "/>
<path style="fill:none;stroke-width:1.2;stroke-linecap:butt;stroke-linejoin:miter;stroke:rgb(0%,0%,100%);stroke-opacity:1;stroke-miterlimit:10;" d="M 201.851562 183.519531 L 210.835938 172.742188 "/>
<path style=" stroke:none;fill-rule:nonzero;fill:rgb(100%,100%,100%);fill-opacity:1;" d="M 198.546875 214.136719 L 207.546875 214.136719 L 207.546875 227.136719 L 198.546875 227.136719 Z M 198.546875 214.136719 "/>
<g style="fill:rgb(100%,0%,0%);fill-opacity:1;">
  <use xlink:href="#glyph0-1" x="198.546875" y="224.038086"/>
</g>
<path style="fill:none;stroke-width:1.2;stroke-linecap:butt;stroke-linejoin:miter;stroke:rgb(0%,0%,100%);stroke-opacity:1;stroke-miterlimit:10;" d="M 210.835938 172.742188 L 205.996094 159.574219 "/>
<path style="fill:none;stroke-width:1.2;stroke-linecap:butt;stroke-linejoin:miter;stroke:rgb(0%,0%,0%);stroke-opacity:1;stroke-miterlimit:10;" d="M 205.996094 159.574219 L 201.15625 146.402344 "/>
<path style="fill:none;stroke-width:1.2;stroke-linecap:butt;stroke-linejoin:miter;stroke:rgb(0%,0%,100%);stroke-opacity:1;stroke-miterlimit:10;" d="M 203.671875 172.386719 L 199.800781 161.851562 "/>
<path style="fill:none;stroke-width:1.2;stroke-linecap:butt;stroke-linejoin:miter;stroke:rgb(0%,0%,0%);stroke-opacity:1;stroke-miterlimit:10;" d="M 199.800781 161.851562 L 195.925781 151.316406 "/>
<path style=" stroke:none;fill-rule:nonzero;fill:rgb(100%,100%,100%);fill-opacity:1;" d="M 206.835938 166.242188 L 214.835938 166.242188 L 214.835938 179.242188 L 206.835938 179.242188 Z M 206.835938 166.242188 "/>
<g style="fill:rgb(0%,0%,100%);fill-opacity:1;">
  <use xlink:href="#glyph0-2" x="206.835938" y="176.143555"/>
</g>
<path style="fill:none;stroke-width:1.2;stroke-linecap:butt;stroke-linejoin:miter;stroke:rgb(0%,0%,0%);stroke-opacity:1;stroke-miterlimit:10;" d="M 201.15625 146.402344 L 173.503906 141.617188 "/>
<path style="fill:none;stroke-width:1.2;stroke-linecap:butt;stroke-linejoin:miter;stroke:rgb(0%,0%,0%);stroke-opacity:1;stroke-miterlimit:10;" d="M 201.15625 146.402344 L 219.128906 124.851562 "/>
<path style="fill:none;stroke-width:1.2;stroke-linecap:butt;stroke-linejoin:miter;stroke:rgb(0%,0%,0%);stroke-opacity:1;stroke-miterlimit:10;" d="M 173.503906 141.617188 L 163.824219 115.277344 "/>
<path style="fill:none;stroke-width:1.2;stroke-linecap:butt;stroke-linejoin:miter;stroke:rgb(0%,0%,0%);stroke-opacity:1;stroke-miterlimit:10;" d="M 163.824219 115.277344 L 136.175781 110.488281 "/>
<path style="fill:none;stroke-width:1.2;stroke-linecap:butt;stroke-linejoin:miter;stroke:rgb(0%,0%,0%);stroke-opacity:1;stroke-miterlimit:10;" d="M 159.933594 121.304688 L 137.8125 117.476562 "/>
<path style="fill:none;stroke-width:1.2;stroke-linecap:butt;stroke-linejoin:miter;stroke:rgb(0%,0%,0%);stroke-opacity:1;stroke-miterlimit:10;" d="M 136.175781 110.488281 L 131.335938 97.320312 "/>
<path style="fill:none;stroke-width:1.2;stroke-linecap:butt;stroke-linejoin:miter;stroke:rgb(100%,0%,0%);stroke-opacity:1;stroke-miterlimit:10;" d="M 131.335938 97.320312 L 126.496094 84.148438 "/>
<path style="fill:none;stroke-width:1.2;stroke-linecap:butt;stroke-linejoin:miter;stroke:rgb(100%,0%,0%);stroke-opacity:1;stroke-miterlimit:10;" d="M 126.496094 84.148438 L 135.480469 73.375 "/>
<path style="fill:none;stroke-width:1.2;stroke-linecap:butt;stroke-linejoin:miter;stroke:rgb(0%,0%,0%);stroke-opacity:1;stroke-miterlimit:10;" d="M 135.480469 73.375 L 144.464844 62.597656 "/>
<path style=" stroke:none;fill-rule:nonzero;fill:rgb(100%,100%,100%);fill-opacity:1;" d="M 122.496094 77.648438 L 131.496094 77.648438 L 131.496094 90.648438 L 122.496094 90.648438 Z M 122.496094 77.648438 "/>
<g style="fill:rgb(100%,0%,0%);fill-opacity:1;">
  <use xlink:href="#glyph0-1" x="122.496094" y="87.549805"/>
</g>
<path style="fill:none;stroke-width:1.2;stroke-linecap:butt;stroke-linejoin:miter;stroke:rgb(0%,0%,0%);stroke-opacity:1;stroke-miterlimit:10;" d="M 219.128906 124.851562 L 246.777344 129.636719 "/>
<path style="fill:none;stroke-width:1.2;stroke-linecap:butt;stroke-linejoin:miter;stroke:rgb(0%,0%,0%);stroke-opacity:1;stroke-miterlimit:10;" d="M 223.019531 118.824219 L 245.140625 122.652344 "/>
<path style="fill:none;stroke-width:1.2;stroke-linecap:butt;stroke-linejoin:miter;stroke:rgb(0%,0%,0%);stroke-opacity:1;stroke-miterlimit:10;" d="M 209.449219 98.511719 L 219.128906 124.851562 "/>
<path style="fill:none;stroke-width:1.2;stroke-linecap:butt;stroke-linejoin:miter;stroke:rgb(0%,0%,0%);stroke-opacity:1;stroke-miterlimit:10;" d="M 246.777344 129.636719 L 264.75 108.085938 "/>
<path style="fill:none;stroke-width:1.2;stroke-linecap:butt;stroke-linejoin:miter;stroke:rgb(0%,0%,0%);stroke-opacity:1;stroke-miterlimit:10;" d="M 264.75 108.085938 L 255.070312 81.746094 "/>
<path style="fill:none;stroke-width:1.2;stroke-linecap:butt;stroke-linejoin:miter;stroke:rgb(0%,0%,0%);stroke-opacity:1;stroke-miterlimit:10;" d="M 257.585938 107.726562 L 249.839844 86.65625 "/>
<path style="fill:none;stroke-width:1.2;stroke-linecap:butt;stroke-linejoin:miter;stroke:rgb(0%,0%,0%);stroke-opacity:1;stroke-miterlimit:10;" d="M 255.070312 81.746094 L 227.417969 76.957031 "/>
<path style="fill:none;stroke-width:1.2;stroke-linecap:butt;stroke-linejoin:miter;stroke:rgb(0%,0%,0%);stroke-opacity:1;stroke-miterlimit:10;" d="M 227.417969 76.957031 L 209.449219 98.511719 "/>
<path style="fill:none;stroke-width:1.2;stroke-linecap:butt;stroke-linejoin:miter;stroke:rgb(0%,0%,0%);stroke-opacity:1;stroke-miterlimit:10;" d="M 230.691406 83.339844 L 216.316406 100.582031 "/>
</g>
</svg>

<svg xmlns="http://www.w3.org/2000/svg" xmlns:xlink="http://www.w3.org/1999/xlink" width="300pt" height="300pt" viewBox="0 0 300 300"><defs><symbol overflow="visible"><path d="M.547 1.938V-7.75h5.5v9.688zm.625-.61h4.266v-8.47H1.171zm0 0"/></symbol><symbol overflow="visible" id="a"><path d="M4.328-7.28c-.78 0-1.406.296-1.875.89-.46.585-.687 1.382-.687 2.39 0 1.012.226 1.813.687 2.406.47.586 1.094.875 1.875.875.79 0 1.414-.288 1.875-.874.457-.593.688-1.394.688-2.406 0-1.008-.23-1.805-.687-2.39-.46-.594-1.086-.89-1.875-.89zm0-.892c1.125 0 2.024.383 2.703 1.14C7.708-6.28 8.048-5.27 8.048-4c0 1.262-.34 2.273-1.016 3.03C6.353-.22 5.454.157 4.33.157S2.3-.22 1.625-.97c-.668-.75-1-1.757-1-3.03 0-1.27.332-2.28 1-3.03.676-.76 1.578-1.142 2.703-1.142zm0 0"/></symbol><symbol overflow="visible" id="b"><path d="M1.078-8.016h1.47l3.546 6.704v-6.704h1.062V0H5.688L2.124-6.703V0H1.078zm0 0"/></symbol></defs><g><path fill="#fff" d="M0 0h300v300H0z"/><path d="M35.25 117.684l8.984-10.778" stroke-width="1.2" stroke="#f00" stroke-miterlimit="10" fill="none"/><path d="M44.234 106.906l8.99-10.777M44.93 144.023l-4.84-13.17" stroke-width="1.2" stroke="#000" stroke-miterlimit="10" fill="none"/><path d="M40.09 130.852l-4.84-13.168" stroke-width="1.2" stroke="#f00" stroke-miterlimit="10" fill="none"/><path d="M31.25 111.184h9v13h-9zm0 0" fill="#fff"/><use xlink:href="#a" x="31.25" y="121.085" fill="#f00"/><path d="M53.223 96.13l27.648 4.788M80.87 100.918l4.84 13.168" stroke-width="1.2" stroke="#000" stroke-miterlimit="10" fill="none"/><path d="M85.71 114.086l4.84 13.172M90.55 127.258l-8.984 10.773" stroke-width="1.2" stroke="#00f" stroke-miterlimit="10" fill="none"/><path d="M81.566 138.03l-8.984 10.78" stroke-width="1.2" stroke="#000" stroke-miterlimit="10" fill="none"/><path d="M90.55 127.258l13.83 2.39" stroke-width="1.2" stroke="#00f" stroke-miterlimit="10" fill="none"/><path d="M104.38 129.648l13.823 2.395" stroke-width="1.2" stroke="#000" stroke-miterlimit="10" fill="none"/><path d="M86.55 120.758h8v13h-8zm0 0" fill="#fff"/><use xlink:href="#b" x="86.551" y="130.659" fill="#00f"/><path d="M72.582 148.81l-27.652-4.787M118.203 132.043l9.68 26.34M125.367 132.398l7.746 21.075M136.176 110.488l-17.973 21.555M127.883 158.383l27.652 4.79M155.535 163.172l4.84 13.168" stroke-width="1.2" stroke="#000" stroke-miterlimit="10" fill="none"/><path d="M160.375 176.34l4.84 13.172" stroke-width="1.2" stroke="#00f" stroke-miterlimit="10" fill="none"/><path d="M173.504 141.617l-17.97 21.555M166.637 139.543l-14.375 17.242" stroke-width="1.2" stroke="#000" stroke-miterlimit="10" fill="none"/><path d="M165.215 189.512l-8.985 10.773" stroke-width="1.2" stroke="#00f" stroke-miterlimit="10" fill="none"/><path d="M156.23 200.285l-8.988 10.778" stroke-width="1.2" stroke="#000" stroke-miterlimit="10" fill="none"/><path d="M165.215 189.512l13.824 2.39" stroke-width="1.2" stroke="#00f" stroke-miterlimit="10" fill="none"/><path d="M179.04 191.902l13.827 2.395" stroke-width="1.2" stroke="#000" stroke-miterlimit="10" fill="none"/><path d="M161.215 183.012h8v13h-8zm0 0" fill="#fff"/><use xlink:href="#b" x="161.215" y="192.913" fill="#00f"/><path d="M147.242 211.063l-27.648-4.786M147.242 211.063l9.68 26.34M189.766 195.438l4.84 13.167" stroke-width="1.2" stroke="#000" stroke-miterlimit="10" fill="none"/><path d="M194.605 208.605l4.84 13.172" stroke-width="1.2" stroke="#f00" stroke-miterlimit="10" fill="none"/><path d="M195.965 193.156l4.84 13.172" stroke-width="1.2" stroke="#000" stroke-miterlimit="10" fill="none"/><path d="M200.805 206.328l4.84 13.172" stroke-width="1.2" stroke="#f00" stroke-miterlimit="10" fill="none"/><path d="M192.867 194.297l8.985-10.777" stroke-width="1.2" stroke="#000" stroke-miterlimit="10" fill="none"/><path d="M201.852 183.52l8.984-10.778" stroke-width="1.2" stroke="#00f" stroke-miterlimit="10" fill="none"/><path d="M198.547 214.137h9v13h-9zm0 0" fill="#fff"/><use xlink:href="#a" x="198.547" y="224.038" fill="#f00"/><path d="M210.836 172.742l-4.84-13.168" stroke-width="1.2" stroke="#00f" stroke-miterlimit="10" fill="none"/><path d="M205.996 159.574l-4.84-13.172" stroke-width="1.2" stroke="#000" stroke-miterlimit="10" fill="none"/><path d="M203.672 172.387l-3.87-10.535" stroke-width="1.2" stroke="#00f" stroke-miterlimit="10" fill="none"/><path d="M199.8 161.852l-3.874-10.536" stroke-width="1.2" stroke="#000" stroke-miterlimit="10" fill="none"/><path d="M206.836 166.242h8v13h-8zm0 0" fill="#fff"/><use xlink:href="#b" x="206.836" y="176.144" fill="#00f"/><path d="M201.156 146.402l-27.652-4.785M201.156 146.402l17.973-21.55M173.504 141.617l-9.68-26.34M163.824 115.277l-27.648-4.79M159.934 121.305l-22.12-3.828M136.176 110.488l-4.84-13.168" stroke-width="1.2" stroke="#000" stroke-miterlimit="10" fill="none"/><path d="M131.336 97.32l-4.84-13.172M126.496 84.148l8.984-10.773" stroke-width="1.2" stroke="#f00" stroke-miterlimit="10" fill="none"/><path d="M135.48 73.375l8.985-10.777" stroke-width="1.2" stroke="#000" stroke-miterlimit="10" fill="none"/><path d="M122.496 77.648h9v13h-9zm0 0" fill="#fff"/><use xlink:href="#a" x="122.496" y="87.55" fill="#f00"/><path d="M219.13 124.852l27.647 4.785M223.02 118.824l22.12 3.828M209.45 98.512l9.68 26.34M246.777 129.637l17.973-21.55M264.75 108.086l-9.68-26.34M257.586 107.727l-7.746-21.07M255.07 81.746l-27.652-4.79M227.418 76.957l-17.97 21.555M230.69 83.34l-14.374 17.242" stroke-width="1.2" stroke="#000" stroke-miterlimit="10" fill="none"/></g></svg>
